tenants/kidsweek/icons/external_link.svg

<svg fill="none" height="24" viewBox="0 0 24 24" width="24" xmlns="http://www.w3.org/2000/svg"><path d="m4.692 3.538h5.385c.3061 0 .5996.12158.816.338s.338.50994.338.816-.1216.59958-.338.816-.5099.338-.816.338h-5.385c-.10194.00026-.1996.04094-.27159.11312-.07199.07217-.11241.16994-.11241.27188v13.077c0 .212.172.384.384.384h13.078c.1019 0 .1997-.0404.2719-.1124s.1128-.1697.1131-.2716v-5.385c0-.3061.1216-.5996.338-.816s.5099-.338.816-.338.5996.1216.816.338.338.5099.338.816v5.385c0 .3538-.0697.7041-.2052 1.0309s-.334.6237-.5843.8737-.5474.4482-.8744.5833c-.327.1352-.6773.2045-1.0311.2041h-13.076c-.71396 0-1.39868-.2836-1.90353-.7885-.50485-.5048-.78847-1.1895-.78847-1.9035v-13.078c0-.71405.28359-1.39888.78841-1.90388.50482-.50501 1.18954-.78885 1.90359-.78912zm10.545-1.538h6.378c.0506 0 .1006.00996.1473.02931.0467.01934.0892.0477.1249.08345.0358.03575.0641.0782.0835.12491.0193.04671.0293.09677.0293.14733v6.378c-.0001.07608-.0227.15042-.065.21365-.0423.06322-.1024.1125-.1727.1416s-.1477.03672-.2223.02191c-.0746-.01482-.1432-.05141-.197-.10516l-2.373-2.373-5.77 5.768c-.1634.1514-.367.2524-.5865.2907-.2194.0384-.4452.0124-.6503-.0746-.205-.0871-.3805-.2316-.5052-.4162-.1248-.1845-.1936-.4012-.198-.6239-.005-.299.1061-.5883.31-.807l5.768-5.77-2.373-2.373c-.0534-.05389-.0897-.12236-.1043-.19681-.0146-.07446-.0069-.15157.0221-.22165.0291-.07009.0782-.13003.1412-.17229s.1371-.06496.213-.06525z" fill="#000"/></svg>

<svg width="24" height="24" viewBox="0 0 24 24" fill="none" xmlns="http://www.w3.org/2000/svg">
<path d="M4.692 3.538H10.077C10.3831 3.538 10.6766 3.65958 10.893 3.876C11.1094 4.09242 11.231 4.38594 11.231 4.692C11.231 4.99806 11.1094 5.29158 10.893 5.508C10.6766 5.72442 10.3831 5.846 10.077 5.846H4.692C4.59006 5.84626 4.4924 5.88694 4.42041 5.95912C4.34842 6.03129 4.308 6.12906 4.308 6.231V19.308C4.308 19.52 4.48 19.692 4.692 19.692H17.77C17.8719 19.692 17.9697 19.6516 18.0419 19.5796C18.1141 19.5076 18.1547 19.4099 18.155 19.308V13.923C18.155 13.6169 18.2766 13.3234 18.493 13.107C18.7094 12.8906 19.0029 12.769 19.309 12.769C19.6151 12.769 19.9086 12.8906 20.125 13.107C20.3414 13.3234 20.463 13.6169 20.463 13.923V19.308C20.463 19.6618 20.3933 20.0121 20.2578 20.3389C20.1223 20.6657 19.9238 20.9626 19.6735 21.2126C19.4232 21.4626 19.1261 21.6608 18.7991 21.7959C18.4721 21.9311 18.1218 22.0004 17.768 22H4.692C3.97804 22 3.29332 21.7164 2.78847 21.2115C2.28362 20.7067 2 20.022 2 19.308V6.23C2 5.51595 2.28359 4.83112 2.78841 4.32612C3.29323 3.82111 3.97795 3.53727 4.692 3.537V3.538ZM15.237 2H21.615C21.6656 2 21.7156 2.00996 21.7623 2.02931C21.809 2.04865 21.8515 2.07701 21.8872 2.11276C21.923 2.14851 21.9513 2.19096 21.9707 2.23767C21.99 2.28438 22 2.33444 22 2.385V8.763C21.9999 8.83908 21.9773 8.91342 21.935 8.97665C21.8927 9.03987 21.8326 9.08915 21.7623 9.11825C21.692 9.14735 21.6146 9.15497 21.54 9.14016C21.4654 9.12534 21.3968 9.08875 21.343 9.035L18.97 6.662L13.2 12.43C13.0366 12.5814 12.833 12.6824 12.6135 12.7207C12.3941 12.7591 12.1683 12.7331 11.9632 12.6461C11.7582 12.559 11.5827 12.4145 11.458 12.2299C11.3332 12.0454 11.2644 11.8287 11.26 11.606C11.255 11.307 11.3661 11.0177 11.57 10.799L17.338 5.029L14.965 2.656C14.9116 2.60211 14.8753 2.53364 14.8607 2.45919C14.8461 2.38473 14.8538 2.30762 14.8828 2.23754C14.9119 2.16745 14.961 2.10751 15.024 2.06525C15.087 2.02299 15.1611 2.00029 15.237 2Z" fill="black"/>
</svg>
